X:45
M:6/8
L:1/8
K:G
|: d2D d2D | dcB c3 | c2[Cc] c2[Cc] | cBA B3 | G2A B2c | def gfe | dcB AGF | G3 [G,3G3] :|

